assets/kasasmart/mono.svg

<svg viewBox="0 0 24 24" xmlns="http://www.w3.org/2000/svg"><path d="m12 0c-.5 0-1 .25-1.5.75l-2.53 2.53 8.83 8.83c1 1 1.5 2 1.5 3v8.89h3.3c1.6 0 2.4-.8 2.4-2.4v-8.85c0-1-.5-2-1.5-3l-9-9c-.5-.5-1-.75-1.5-.75zm-5.1 4.34-4.01 4.03 6.71 6.73c1 1 1.5 2 1.5 3v5.9h5.7v-8.89c-.03-.83-.6-1.46-1.06-1.94l-8.83-8.83zm-5.08 5.1-.32.31c-1 1-1.5 2-1.5 3v8.85c0 1.6.8 2.4 2.4 2.4h7.2v-5.9c-.03-.8-.56-1.42-1.06-1.95z"/></svg>

<svg xmlns="http://www.w3.org/2000/svg" viewBox="0 0 24 24"><path d="M12 0q-.75 0-1.5.75L7.97 3.28l8.83 8.83q1.5 1.5 1.5 3V24h3.3q2.4 0 2.4-2.4v-8.85q0-1.5-1.5-3l-9-9Q12.75 0 12 0M6.9 4.34 2.89 8.37 9.6 15.1q1.5 1.5 1.5 3V24h5.7v-8.89c-.03-.83-.6-1.46-1.06-1.94L6.91 4.34zm-5.08 5.1-.32.31q-1.5 1.5-1.5 3v8.85Q0 24 2.4 24h7.2v-5.9c-.03-.8-.56-1.42-1.06-1.95z"/></svg>
